assets/dashboard/img/icon/dashboard.svg

<svg enable-background="new 0 0 128 128" height="128" viewBox="0 0 128 128" width="128" xmlns="http://www.w3.org/2000/svg"><path d="m125.648 117.434c1.567-1.561 2.353-3.432 2.353-5.608v-95.647c0-2.177-.785-4.048-2.353-5.608-1.569-1.562-3.445-2.344-5.633-2.344h-112.028c-2.188 0-4.067.781-5.635 2.344-1.569 1.559-2.352 3.43-2.352 5.608v95.646c0 2.178.783 4.049 2.351 5.608 1.569 1.562 3.447 2.342 5.635 2.342h112.03c2.186 0 4.063-.78 5.632-2.341zm-117.662-5.61v-71.68h112.028v71.68zm0-95.644h112.028v15.904h-112.028zm32.164 11.983c1.094 0 2.025-.399 2.789-1.199.765-.798 1.148-1.743 1.148-2.831 0-1.09-.382-2.016-1.148-2.777-.766-.764-1.696-1.146-2.79-1.146h-.109c-1.094 0-2.024.382-2.79 1.146-.765.761-1.148 1.688-1.148 2.777 0 1.088.401 2.033 1.203 2.831.803.8 1.751 1.199 2.845 1.199zm-12.034 0c1.094 0 2.042-.399 2.845-1.199.802-.798 1.203-1.743 1.203-2.831 0-1.09-.401-2.016-1.203-2.777-.803-.764-1.751-1.146-2.845-1.146-1.094 0-2.042.382-2.845 1.146-.802.761-1.203 1.688-1.203 2.777 0 1.088.401 2.033 1.203 2.831.803.8 1.751 1.199 2.845 1.199zm-12.034 0c1.167 0 2.134-.399 2.899-1.199.765-.798 1.148-1.743 1.148-2.831 0-1.09-.382-2.016-1.148-2.777-.765-.764-1.732-1.146-2.899-1.146-1.094 0-2.024.382-2.79 1.146-.765.761-1.148 1.688-1.148 2.777 0 1.088.382 2.033 1.148 2.831.766.8 1.696 1.199 2.79 1.199zm90.748 50.599c.766-.762 1.148-1.688 1.148-2.777 0-1.088-.381-2.032-1.148-2.832-.766-.801-1.695-1.197-2.79-1.197h-32.056c-1.092 0-2.021.396-2.789 1.197-.764.8-1.146 1.742-1.146 2.832 0 1.091.381 2.016 1.146 2.777.768.764 1.697 1.146 2.789 1.146h32.056c1.095-.002 2.024-.383 2.79-1.146zm0-15.905c.766-.763 1.148-1.725 1.148-2.887 0-1.09-.381-2.015-1.148-2.777-.766-.764-1.695-1.146-2.79-1.146h-32.056c-1.092 0-2.021.382-2.789 1.146-.764.762-1.146 1.688-1.146 2.777 0 1.162.381 2.124 1.146 2.887.768.763 1.697 1.145 2.789 1.145h32.056c1.095 0 2.024-.382 2.79-1.145zm-50.816 36.985c1.093 0 2.043-.382 2.844-1.145.803-.762 1.204-1.688 1.204-2.777v-39.871c0-1.088-.401-2.033-1.204-2.831-.801-.799-1.75-1.198-2.844-1.198h-32.055c-1.094 0-2.024.399-2.79 1.198-.765.798-1.148 1.743-1.148 2.831v39.871c0 1.089.382 2.016 1.148 2.777.766.763 1.696 1.145 2.79 1.145zm-4.048-7.953h-23.959v-31.916h23.959zm20.018-4.032c-1.092 0-2.021.399-2.789 1.199-.764.799-1.146 1.741-1.146 2.83 0 1.092.381 2.034 1.146 2.834.768.799 1.697 1.197 2.789 1.197h16.082c1.096 0 2.023-.398 2.791-1.197.766-.8 1.147-1.742 1.147-2.834 0-1.089-.382-2.031-1.147-2.83-.768-.801-1.695-1.199-2.791-1.199z" fill="#308af4"/></svg>

<?xml version="1.0" encoding="utf-8"?>

<!DOCTYPE svg PUBLIC "-//W3C//DTD SVG 1.1//EN" "http://www.w3.org/Graphics/SVG/1.1/DTD/svg11.dtd">
<svg version="1.1" id="Layer_1" xmlns="http://www.w3.org/2000/svg" x="0px" y="0px"
	 width="128px" height="128px" viewBox="0 0 128 128" enable-background="new 0 0 128 128" xml:space="preserve">
<path id="uniE903" fill="#308AF4" d="M125.648,117.434c1.567-1.561,2.353-3.432,2.353-5.608V16.179c0-2.177-0.785-4.048-2.353-5.608
	c-1.569-1.562-3.445-2.344-5.633-2.344H7.987c-2.188,0-4.067,0.781-5.635,2.344C0.783,12.13,0,14.001,0,16.179v95.646
	c0,2.178,0.783,4.049,2.351,5.608c1.569,1.562,3.447,2.342,5.635,2.342h112.03C122.202,119.775,124.079,118.995,125.648,117.434z
	 M7.986,111.824v-71.68h112.028v71.68H7.986L7.986,111.824z M7.986,16.18h112.028v15.904H7.986V16.18L7.986,16.18z M40.15,28.163
	c1.094,0,2.025-0.399,2.789-1.199c0.765-0.798,1.148-1.743,1.148-2.831c0-1.09-0.382-2.016-1.148-2.777
	c-0.766-0.764-1.696-1.146-2.79-1.146H40.04c-1.094,0-2.024,0.382-2.79,1.146c-0.765,0.761-1.148,1.688-1.148,2.777
	c0,1.088,0.401,2.033,1.203,2.831C38.108,27.764,39.056,28.163,40.15,28.163L40.15,28.163z M28.116,28.163
	c1.094,0,2.042-0.399,2.845-1.199c0.802-0.798,1.203-1.743,1.203-2.831c0-1.09-0.401-2.016-1.203-2.777
	c-0.803-0.764-1.751-1.146-2.845-1.146l0,0c-1.094,0-2.042,0.382-2.845,1.146c-0.802,0.761-1.203,1.688-1.203,2.777
	c0,1.088,0.401,2.033,1.203,2.831C26.074,27.764,27.022,28.163,28.116,28.163L28.116,28.163z M16.082,28.163
	c1.167,0,2.134-0.399,2.899-1.199c0.765-0.798,1.148-1.743,1.148-2.831c0-1.09-0.382-2.016-1.148-2.777
	c-0.765-0.764-1.732-1.146-2.899-1.146l0,0c-1.094,0-2.024,0.382-2.79,1.146c-0.765,0.761-1.148,1.688-1.148,2.777
	c0,1.088,0.382,2.033,1.148,2.831C14.058,27.764,14.988,28.163,16.082,28.163L16.082,28.163z M106.83,78.762
	c0.766-0.762,1.148-1.688,1.148-2.777c0-1.088-0.381-2.032-1.148-2.832c-0.766-0.801-1.695-1.197-2.79-1.197H71.984
	c-1.092,0-2.021,0.396-2.789,1.197c-0.764,0.8-1.146,1.742-1.146,2.832c0,1.091,0.381,2.016,1.146,2.777
	c0.768,0.764,1.697,1.146,2.789,1.146h32.056C105.135,79.906,106.064,79.525,106.83,78.762z M106.83,62.857
	c0.766-0.763,1.148-1.725,1.148-2.887c0-1.09-0.381-2.015-1.148-2.777c-0.766-0.764-1.695-1.146-2.79-1.146H71.984
	c-1.092,0-2.021,0.382-2.789,1.146c-0.764,0.762-1.146,1.688-1.146,2.777c0,1.162,0.381,2.124,1.146,2.887
	c0.768,0.763,1.697,1.145,2.789,1.145h32.056C105.135,64.002,106.064,63.62,106.83,62.857z M56.014,99.842
	c1.093,0,2.043-0.382,2.844-1.145c0.803-0.762,1.204-1.688,1.204-2.777V56.049c0-1.088-0.401-2.033-1.204-2.831
	c-0.801-0.799-1.75-1.198-2.844-1.198H23.959c-1.094,0-2.024,0.399-2.79,1.198c-0.765,0.798-1.148,1.743-1.148,2.831V95.92
	c0,1.089,0.382,2.016,1.148,2.777c0.766,0.763,1.696,1.145,2.79,1.145H56.014L56.014,99.842z M51.966,91.889H28.007V59.973h23.959
	V91.889z M71.984,87.857c-1.092,0-2.021,0.399-2.789,1.199c-0.764,0.799-1.146,1.741-1.146,2.83c0,1.092,0.381,2.034,1.146,2.834
	c0.768,0.799,1.697,1.197,2.789,1.197h16.082c1.096,0,2.023-0.398,2.791-1.197c0.766-0.8,1.147-1.742,1.147-2.834
	c0-1.089-0.382-2.031-1.147-2.83c-0.768-0.801-1.695-1.199-2.791-1.199H71.984L71.984,87.857z"/>
</svg>
